theme/essential/pix_core/a/logout.svg

<!DOCTYPE svg PUBLIC "-//W3C//DTD SVG 1.1//EN" "http://www.w3.org/Graphics/SVG/1.1/DTD/svg11.dtd" [
	<!ENTITY ns_flows "http://ns.adobe.com/Flows/1.0/">
]><svg xmlns="http://www.w3.org/2000/svg" width="16" height="16" viewBox="0 0 16 16" preserveAspectRatio="xMinYMid meet" overflow="visible"><path d="M9 16h-8c-.5 0-1-.5-1-1v-14c0-.5.5-1 1-1h8v2h-6c-.6 0-1 .4-1 1v10c0 .6.4 1 1 1h6v2zm-4-8.5v1c0 .5.5 1 1 1h4.7l-1.1 1.1c-.4.4-.4 1 0 1.4l.7.7c.4.4 1 .4 1.4 0l4-4c.4-.4.4-1 0-1.4l-4-4c-.4-.4-1-.4-1.4 0l-.7.7c-.4.4-.4 1 0 1.4l1 1h-4.6c-.5.1-1 .6-1 1.1z" fill="#999"/></svg>

<?xml version="1.0" encoding="utf-8"?>
<!-- Generator: Adobe Illustrator 15.1.0, SVG Export Plug-In  -->
<!DOCTYPE svg PUBLIC "-//W3C//DTD SVG 1.1//EN" "http://www.w3.org/Graphics/SVG/1.1/DTD/svg11.dtd" [
	<!ENTITY ns_flows "http://ns.adobe.com/Flows/1.0/">
]>
<svg version="1.1"
	 xmlns="http://www.w3.org/2000/svg" xmlns:xlink="http://www.w3.org/1999/xlink" xmlns:a="http://ns.adobe.com/AdobeSVGViewerExtensions/3.0/"
	 x="0px" y="0px" width="16px" height="16px" viewBox="0 0 16 16" style="overflow:visible;enable-background:new 0 0 16 16;"
	 xml:space="preserve" preserveAspectRatio="xMinYMid meet">
<defs>
</defs>
<path style="fill:#29a1c4;" d="M9,16H1c-0.5,0-1-0.5-1-1V1c0-0.5,0.5-1,1-1h8v2H3C2.4,2,2,2.4,2,3v10c0,0.6,0.4,1,1,1h6V16z M5,7.5
	v1c0,0.5,0.5,1,1,1h4.7l-1.1,1.1c-0.4,0.4-0.4,1,0,1.4l0.7,0.7c0.4,0.4,1,0.4,1.4,0l4-4c0.4-0.4,0.4-1,0-1.4l-4-4
	c-0.4-0.4-1-0.4-1.4,0L9.6,4c-0.4,0.4-0.4,1,0,1.4l1,1H6C5.5,6.5,5,7,5,7.5z"/>
</svg>
